; generated by PrusaSlicer 2.8.1+MacOS-x64 on 2025-03-18 at 19:39:42 UTC


;
;

;
;

;
;

;
;

;
;
; 

; external perimeters extrusion width = 0.45mm
; perimeters extrusion width = 0.45mm
; infill extrusion width = 0.45mm
; solid infill extrusion width = 0.45mm
; top infill extrusion width = 0.42mm
; support material extrusion width = 0.37mm
; first layer extrusion width = 0.50mm

M73 P0 R39
M73 Q0 S39
M201 X2500 Y2500 Z200 E2500 ; sets maximum accelerations, mm/sec^2
M203 X200 Y200 Z40 E100 ; sets maximum feedrates, mm / sec
M204 P2000 R1200 T2000 ; sets acceleration (P, T) and retract acceleration (R), mm/sec^2
M205 X8.00 Y8.00 Z2.00 E10.00 ; sets the jerk limits, mm/sec
M205 S0 T0 ; sets the minimum extruding and travel feed rate, mm/sec

M486 S0
M486 Awide_table.stl
M486 S-1

;TYPE:Custom
M17 ; enable steppers
M862.3 P "MK4" ; printer model check
M862.1 P0.4 A0 F0 ; nozzle check
M115 U6.1.3+7898
M555 X97.8988 Y72.6399 W63.0232 H46.4028

G90 ; use absolute coordinates
M83 ; extruder relative mode

M140 S60 ; set bed temp
M104 T0 S170 ; set extruder temp for bed leveling
M109 T0 R170 ; wait for temp

M84 E ; turn off E motor

G28 ; home all without mesh bed level

G1 X42 Y-4 Z5 F4800

M302 S160 ; lower cold extrusion limit to 160C


G1 E-2 F2400 ; retraction


M84 E ; turn off E motor

G29 P9 X10 Y-4 W32 H4

M106 S100

G0 Z40 F10000

M190 S60 ; wait for bed temp

M107

;
; MBL
;
M84 E ; turn off E motor
G29 P1 ; invalidate mbl & probe print area
G29 P1 X0 Y0 W50 H20 C ; probe near purge place
G29 P3.2 ; interpolate mbl probes
G29 P3.13 ; extrapolate mbl outside probe area
G29 A ; activate mbl

; prepare for purge
M104 S215
G0 X0 Y-4 Z15 F4800 ; move away and ready for the purge
M109 S215

G92 E0
M569 S0 E ; set spreadcycle mode for extruder

;
; Extrude purge line
;
G92 E0 ; reset extruder position
G1 E2 F2400 ; deretraction after the initial one before nozzle cleaning
G0 E7 X15 Z0.2 F500 ; purge
G0 X25 E4 F500 ; purge
G0 X35 E4 F650 ; purge
G0 X45 E4 F800 ; purge
G0 X48 Z0.05 F8000 ; wipe, move close to the bed
G0 X51 Z0.2 F8000 ; wipe, move quickly away from the bed

G92 E0
M221 S100 ; set flow to 100%
G21 ; set units to millimeters
G90 ; use absolute coordinates
M83 ; use relative distances for extrusion
M900 K0.05 ; Filament gcode



M142 S36 ; set heatbreak target temp
M107
;LAYER_CHANGE
;Z:0.2
;HEIGHT:0.2
G1 E-.8 F2100
G1 Z.8 F720
M486 S0
G1 X123.744 Y77.188 F12000
G1 Z.2 F720
G1 E.8 F1500
M204 P600
;TYPE:Support material
;WIDTH:0.5
G1 F1200
G1 X123.948 Y77.313 E.00909
G3 X126.031 Y78.456 I-1.481 J5.166 E.09105
G3 X129.419 Y83.273 I-9.504 J10.286 E.22551
G3 X131.531 Y88.595 I-47.254 J21.831 E.21772
G1 X132.343 Y88.601 E.03086
G1 X132.488 Y88.336 E.01148
G1 X132.165 Y87.449 E.03588
G1 X132.667 Y86.341 E.04623
G3 X133.095 Y85.211 I2.772 J.404 E.04629
G3 X133.582 Y83.998 I3.029 J.513 E.05006
G3 X134.174 Y82.666 I3.124 J.589 E.0559
G3 X134.899 Y81.237 I3.225 J.74 E.06151
G3 X139.774 Y77.844 I6.071 J3.525 E.23308
G3 X143.997 Y79.178 I.502 J5.766 E.17272
G3 X146.27 Y81.69 I-7.298 J8.888 E.12923
G2 X146.927 Y82.726 I1.569 J-.268 E.04786
G1 X147.326 Y83.437 E.03099
G3 X147.895 Y84.763 I-3.081 J2.107 E.05519
G3 X148.318 Y86.177 I-1.295 J1.158 E.05794
G1 X148.363 Y86.409 E.00898
G3 X148.618 Y87.141 I-1.438 J.911 E.02972
G1 X148.79 Y87.705 E.02241
G3 X149.362 Y89.872 I-7.788 J3.215 E.08543
G1 X149.258 Y90.201 E.01311
G1 X151.355 Y92.337 E.11376
G3 X150.89 Y92.561 I-.334 J-.098 E.02211
G1 X148.43 Y92.182 E.0946
G3 X146.998 Y91.467 I-.124 J-1.542 E.06393
G2 X134.14 Y90.592 I-14.919 J124.331 E.49003
G3 X132.276 Y91.1 I-1.456 J-1.668 E.07598
G1 X118.35 Y102.605 E.68654
G1 X118.661 Y103.601 E.03966
G2 X129.568 Y104.1 I11.289 J-127.343 E.41509
G1 X130.4 Y103.578 E.03733
G1 X131.589 Y103.578 E.04519
G1 X132.318 Y104.1 E.03408
G2 X146.087 Y103.272 I-1.169 J-134.412 E.52448
M73 P0 R38
G1 X146.668 Y102.52 E.03612
G1 X145.541 Y102.65 E.04312
G1 X145.477 Y102.5 E.0062
G1 X148.865 Y99.701 E.16702
G1 X151.813 Y99.293 E.11311
G1 X150.302 Y103.701 E.1771
G3 X146.83 Y112.1 I-69.889 J-23.974 E.34563
G1 X145.931 Y113.524 E.064
G3 X145.06 Y114.501 I-2.338 J-1.21 E.05027
G3 X143.334 Y116.202 I-4.174 J-2.508 E.09308
G2 X141.158 Y117.724 I10.486 J17.308 E.101
G3 X135.361 Y115.82 I-1.313 J-5.779 E.2436
G3 X131.799 Y109.627 I15.198 J-12.862 E.27301
G1 X131.445 Y108.741 E.03626
G1 X130.819 Y110.227 E.06128
G3 X130.289 Y111.14 I-1.67 J-.359 E.04079
G2 X130.132 Y112.353 I.965 J.742 E.04871
G3 X126.113 Y117.821 I-13.957 J-6.046 E.2601
G1 X125.124 Y118.447 E.04449
G1 X123.71 Y118.623 E.05416
G3 X121.873 Y118.604 I-.894 J-2.442 E.07136
G3 X120.348 Y117.954 I.101 J-2.348 E.06439
G1 X118.998 Y117.153 E.05966
G2 X118.012 Y115.961 I-6.925 J4.72 E.05888
G3 X117.147 Y114.624 I2.232 J-2.393 E.06114
G2 X116.211 Y113.329 I-3.511 J1.55 E.06118
G1 X115.217 Y111.462 E.08039
G2 X114.865 Y110.24 I-1.618 J-.196 E.04965
G1 X114.265 Y108.98 E.05304
G2 X114.238 Y108.144 I-.537 J-.401 E.03433
G2 X114.068 Y107.069 I-1.125 J-.373 E.04298
G2 X113.732 Y105.753 I-1.408 J-.341 E.05373
G2 X113.722 Y105.051 I-.494 J-.344 E.02849
G3 X102.685 Y102.443 I5.115 J-46.291 E.4321
G3 X99.491 Y100.417 I3.936 J-9.739 E.14454
G1 X98.594 Y99.208 E.05722
G1 X98.127 Y97.398 E.07104
G1 X98.606 Y95.533 E.07318
G3 X102.679 Y92.326 I6.978 J4.674 E.2003
G3 X112.294 Y89.893 I15.364 J40.508 E.37778
G1 X112.613 Y89.025 E.03515
G3 X113.334 Y87.304 I8.025 J2.352 E.07106
G3 X117.986 Y79.128 I22.581 J7.437 E.35989
M73 Q0 S38
G3 X120.869 Y77.303 I5.106 J4.873 E.13098
G3 X121.899 Y77.001 I.951 J1.339 E.04156
G3 X123.678 Y77.17 I.666 J2.433 E.06942
M204 P1000
G1 E-.64 F2100
;WIPE_START
G1 F9600
G2 X122.946 Y76.94 I-1.113 J2.264 E-.16
;WIPE_END
G1 X146.368 Y97.069 Z.739 F12000
G1 X148.133 Y98.586 Z.773
G1 X150.995 Y101.045 Z.799
G1 Z.2 F720
G1 E.8 F1500
M204 P600
G1 F1200
G1 X150.995 Y99.821 E.04652
G1 X150.423 Y99.9 E.02195
G1 X150.423 Y102.078 E.08278
G1 X149.852 Y103.744 E.06693
G1 X149.852 Y99.979 E.14309
G1 X149.281 Y100.058 E.02191
G1 X149.281 Y105.349 E.20109
G1 X148.709 Y106.835 E.06052
G1 X148.709 Y100.363 E.24598
G1 X148.138 Y100.835 E.02816
G1 X148.138 Y108.251 E.28185
G1 X147.567 Y109.562 E.05435
M73 P1 R38
M73 Q1 S38
G1 X147.567 Y101.307 E.31374
G1 X146.995 Y101.779 E.02819
G1 X146.995 Y102.275 E.01885
M204 P1000
G1 E-.64 F2100
;WIPE_START
G1 F9600
G1 X146.995 Y101.779 E-.10308
G1 X147.206 Y101.605 E-.05692
;WIPE_END
G1 X150.423 Y92.28 Z.372 F12000
G1 Z.2 F720
G1 E.8 F1500
M204 P600
G1 F1200
G1 X150.423 Y91.975 E.01159
G1 X149.852 Y91.393 E.03099
G1 X149.852 Y91.982 E.02239
G1 X149.281 Y91.893 E.02196
G1 X149.281 Y90.811 E.04112
G1 X148.791 Y90.313 E.02655
G1 X148.939 Y89.847 E.01858
G1 X148.709 Y88.674 E.04543
G1 X148.709 Y91.808 E.11911
G1 X148.138 Y91.726 E.02192
G1 X148.138 Y86.874 E.18441
G3 X147.869 Y85.468 I2.198 J-1.149 E.05519
G1 X147.567 Y85.013 E.02076
G1 X147.567 Y91.459 E.24499
G2 X146.995 Y91.052 I-.696 J.372 E.02765
G1 X146.995 Y83.69 E.2798
G1 X146.424 Y82.796 E.04032
G1 X146.424 Y90.982 E.31112
G1 X145.853 Y90.916 E.02185
G1 X145.853 Y81.818 E.34578
G1 X145.281 Y81.064 E.03597
G1 X145.281 Y90.852 E.37201
G1 X144.71 Y90.793 E.02182
G1 X144.71 Y80.399 E.39504
G1 X144.139 Y79.826 E.03074
G1 X144.139 Y90.736 E.41465
G1 X143.567 Y90.682 E.02184
G1 X143.567 Y79.366 E.43008
G1 X143.054 Y79.021 E.0235
G1 X142.996 Y78.986 E.00257
G1 X142.996 Y90.629 E.44251
G1 X142.424 Y90.591 E.02179
G1 X142.424 Y78.688 E.45239
G1 X141.853 Y78.475 E.02316
G1 X141.853 Y90.545 E.45874
G1 X141.282 Y90.502 E.02176
G1 X141.282 Y78.319 E.46303
G1 X140.71 Y78.242 E.02194
G1 X140.71 Y90.463 E.46448
G1 X140.139 Y90.425 E.02175
G1 X140.139 Y78.233 E.46337
G1 X139.568 Y78.292 E.02182
G1 X139.568 Y90.389 E.45976
G1 X138.996 Y90.356 E.02178
G1 X138.996 Y78.421 E.45361
G1 X138.425 Y78.624 E.02303
G1 X138.425 Y90.326 E.44475
G1 X137.854 Y90.298 E.02173
G1 X137.854 Y78.908 E.43289
G1 X137.282 Y79.279 E.02591
G1 X137.282 Y90.27 E.41773
G1 X136.711 Y90.258 E.02171
G1 X136.711 Y79.746 E.39952
G1 X136.14 Y80.32 E.03077
G1 X136.14 Y90.237 E.37691
G1 X135.568 Y90.218 E.02175
G1 X135.568 Y81.014 E.34981
G1 X134.997 Y81.834 E.03798
G1 X134.997 Y90.201 E.318
G1 X134.426 Y90.187 E.02171
G1 X134.426 Y83.052 E.27118
G2 X133.979 Y84.127 I1.742 J1.355 E.04478
G1 X133.854 Y84.368 E.01032
G1 X133.854 Y90.295 E.22526
G1 X133.283 Y90.636 E.02528
G1 X133.283 Y85.773 E.18482
G1 X133.1 Y86.161 E.0163
G3 X132.712 Y87.239 I-2.705 J-.365 E.04387
G2 X132.938 Y88.37 I2.044 J.178 E.04443
G1 X132.712 Y88.784 E.01793
G1 X132.712 Y90.693 E.07255
G1 X132.14 Y90.687 E.02174
G1 X132.14 Y89.011 E.0637
G1 X131.569 Y89.007 E.0217
G1 X131.569 Y91.151 E.08149
G1 X130.998 Y91.623 E.02816
G1 X130.998 Y88.315 E.12572
G1 X130.426 Y86.741 E.06365
G1 X130.426 Y92.095 E.20349
G1 X129.855 Y92.567 E.02816
G1 X129.855 Y85.278 E.27703
G1 X129.283 Y83.956 E.05475
G1 X129.283 Y93.039 E.34521
G1 X128.712 Y93.511 E.02816
G1 X128.712 Y82.768 E.4083
G1 X128.141 Y81.719 E.04539
G1 X128.141 Y93.983 E.46611
G1 X127.569 Y94.455 E.02819
G1 X127.569 Y80.811 E.51856
G1 X126.998 Y80.036 E.03659
G1 X126.998 Y94.927 E.56595
G1 X126.427 Y95.399 E.02816
G1 X126.427 Y79.37 E.6092
G1 X125.855 Y78.848 E.02943
G1 X125.855 Y95.871 E.64698
G1 X125.284 Y96.343 E.02816
G1 X125.284 Y78.381 E.68267
G1 X124.713 Y78.063 E.02484
M73 P2 R38
M73 Q2 S38
G1 X124.713 Y96.815 E.71269
G1 X124.141 Y97.287 E.02819
G1 X124.141 Y77.814 E.7401
G1 X123.57 Y77.567 E.02365
G1 X123.57 Y97.759 E.76742
G1 X122.999 Y98.231 E.02816
G1 X122.999 Y77.411 E.79129
G1 X122.427 Y77.317 E.02203
G1 X122.427 Y98.703 E.8128
G1 X121.856 Y99.175 E.02816
G1 X121.856 Y77.418 E.8269
G2 X121.285 Y77.547 I-.082 J.963 E.0226
G1 X121.285 Y99.647 E.83994
G1 X120.713 Y100.119 E.02819
G1 X120.713 Y77.794 E.84849
G1 X120.142 Y78.038 E.0236
G1 X120.142 Y100.591 E.85716
G1 X119.571 Y101.063 E.02816
G1 X119.571 Y78.364 E.86271
G1 X118.999 Y78.772 E.0267
G1 X118.999 Y101.535 E.86514
G1 X118.428 Y102.007 E.02816
G1 X118.428 Y79.272 E.86407
G1 X117.856 Y79.871 E.03148
G1 X117.856 Y115.109 E1.33927
G1 X118.428 Y115.811 E.03442
G1 X118.428 Y103.994 E.44912
G1 X118.999 Y104.043 E.02178
G1 X118.999 Y116.42 E.4704
G2 X119.571 Y117.015 I1.147 J-.529 E.03196
G1 X119.571 Y104.091 E.49119
G1 X120.142 Y104.136 E.02177
G1 X120.142 Y117.355 E.50241
G1 X120.713 Y117.72 E.02576
G1 X120.713 Y104.177 E.51472
G1 X121.285 Y104.218 E.0218
G1 X121.285 Y118.048 E.52563
G2 X121.856 Y118.191 I.491 J-.749 E.0228
G1 X121.856 Y104.255 E.52966
G1 X122.427 Y104.293 E.02175
G1 X122.427 Y118.336 E.53372
G2 X122.999 Y118.327 I.273 J-.8 E.02218
G1 X122.999 Y104.325 E.53216
G1 X123.57 Y104.353 E.02173
G1 X123.57 Y118.23 E.52741
G1 X124.141 Y118.155 E.02189
G1 X124.141 Y104.379 E.52358
G1 X124.713 Y104.401 E.02176
M73 P3 R38
M73 Q3 S38
G1 X124.713 Y118.083 E.52
G2 X125.284 Y117.859 I-.015 J-.875 E.02382
G1 X125.284 Y104.42 E.51077
G1 X125.855 Y104.44 E.02171
G1 X125.855 Y117.496 E.49621
G1 X126.427 Y116.949 E.03008
G1 X126.427 Y104.46 E.47466
G1 X126.998 Y104.477 E.02171
G1 X126.998 Y116.42 E.45391
G1 X127.569 Y115.779 E.03263
M73 P3 R37
G1 X127.569 Y104.489 E.42909
G1 X128.141 Y104.5 E.02174
G1 X128.141 Y115.017 E.39971
G1 X128.712 Y114.117 E.04051
G1 X128.712 Y104.51 E.36513
G1 X129.283 Y104.517 E.0217
G1 X129.283 Y113.082 E.32552
G1 X129.7 Y112.291 E.03398
G3 X129.855 Y111.095 I1.105 J-.465 E.04803
G1 X129.855 Y104.406 E.25422
G1 X130.426 Y104.047 E.02563
G1 X130.426 Y110.1 E.23005
G1 X130.998 Y108.745 E.0559
G1 X130.998 Y103.99 E.18072
G3 X131.569 Y104.069 I.189 J.738 E.02247
G1 X131.569 Y107.939 E.14708
G1 X132.14 Y109.373 E.05866
G1 X132.14 Y104.478 E.18604
G1 X132.712 Y104.507 E.02177
G1 X132.712 Y110.724 E.23629
G1 X133.283 Y111.949 E.05137
G1 X133.283 Y104.5 E.28311
G1 X133.854 Y104.491 E.0217
G1 X133.854 Y113.019 E.32412
G1 X134.426 Y113.958 E.04179
G1 X134.426 Y104.477 E.36034
G1 X134.997 Y104.466 E.02171
G1 X134.997 Y114.761 E.39128
G1 X135.568 Y115.439 E.03369
G1 X135.568 Y104.436 E.41818
M73 Q3 S37
G1 X136.14 Y104.417 E.02175
G1 X136.14 Y116 E.44023
G1 X136.711 Y116.454 E.02773
G1 X136.711 Y104.396 E.45828
G1 X137.282 Y104.373 E.02172
G1 X137.282 Y116.816 E.47291
G1 X137.854 Y117.09 E.02411
G1 X137.854 Y104.347 E.48431
G1 X138.425 Y104.32 E.02173
G1 X138.425 Y117.286 E.49279
G1 X138.996 Y117.408 E.02219
G1 X138.996 Y104.289 E.4986
G1 X139.568 Y104.256 E.02178
G1 X139.568 Y117.46 E.50184
G1 X139.619 Y117.463 E.00194
G1 X140.139 Y117.444 E.01978
G1 X140.139 Y104.221 E.50256
G1 X140.71 Y104.175 E.02177
G1 X140.71 Y117.37 E.50149
G2 X141.282 Y117.088 I-.004 J-.73 E.02509
G1 X141.282 Y104.136 E.49226
G1 X141.853 Y104.09 E.02177
G1 X141.853 Y116.632 E.47668
G1 X142.424 Y116.328 E.02459
G1 X142.424 Y104.045 E.46683
G1 X142.996 Y103.996 E.02182
G1 X142.996 Y115.942 E.45402
G1 X143.567 Y115.493 E.02761
G1 X143.567 Y103.945 E.4389
G1 X144.139 Y103.891 E.02184
G1 X144.139 Y115.04 E.42373
G1 X144.71 Y114.282 E.03607
G1 X144.71 Y103.834 E.39709
G1 X145.281 Y103.774 E.02182
G1 X145.281 Y113.771 E.37995
G1 X145.853 Y112.878 E.04031
G1 X145.853 Y103.712 E.34837
G2 X146.424 Y103.51 I.146 J-.497 E.02459
G1 X146.424 Y111.973 E.32165
G1 X146.995 Y110.769 E.05064
G1 X146.995 Y102.453 E.31606
M204 P1000
G1 E-.64 F2100
M73 P4 R37
;WIPE_START
G1 F9600
G1 X146.995 Y103.223 E-.16
;WIPE_END
G1 X118.107 Y114.143 Z.739 F12000
G1 X117.285 Y114.454 Z.753
M73 Q4 S37
G1 Z.2 F720
G1 E.8 F1500
M204 P600
G1 F1200
G1 X117.285 Y80.568 E1.28788
G1 X116.714 Y81.374 E.03754
G1 X116.714 Y113.233 E1.21084
G3 X116.142 Y112.339 I2.105 J-1.975 E.04057
G1 X116.142 Y82.286 E1.1422
G1 X115.571 Y83.308 E.04449
G1 X115.571 Y110.751 E1.04301
G1 X115 Y109.566 E.04999
G1 X115 Y84.435 E.95514
G1 X114.428 Y85.669 E.05169
G1 X114.428 Y106.123 E.77738
G3 X114.3 Y105.193 I.546 J-.549 E.03834
G1 X113.967 Y104.67 E.02356
G1 X113.857 Y104.655 E.00422
G1 X113.857 Y87.013 E.67051
G1 X113.779 Y87.206 E.00791
G3 X113.546 Y87.716 I-.869 J-.089 E.02169
G1 X113.286 Y88.405 E.02799
G1 X113.286 Y104.575 E.61456
G1 X112.714 Y104.492 E.02197
G1 X112.714 Y89.942 E.55299
G3 X112.143 Y90.333 I-.448 J-.042 E.03
G1 X112.143 Y104.405 E.53483
G1 X111.572 Y104.314 E.02198
G1 X111.572 Y90.425 E.52787
G1 X111 Y90.52 E.02204
G1 X111 Y104.218 E.52061
G1 X110.429 Y104.118 E.02203
G1 X110.429 Y90.621 E.51297
G1 X109.858 Y90.726 E.02207
G1 X109.858 Y104.019 E.50522
G1 X109.286 Y103.908 E.02215
G1 X109.286 Y90.847 E.4964
G1 X108.715 Y90.967 E.02218
G1 X108.715 Y103.79 E.48736
G1 X108.144 Y103.666 E.02221
G1 X108.144 Y91.091 E.47793
G1 X107.572 Y91.222 E.0223
G1 X107.572 Y103.535 E.46797
G1 X107.001 Y103.398 E.02232
G1 X107.001 Y91.36 E.45752
G1 X106.43 Y91.506 E.0224
G1 X106.43 Y103.251 E.44638
G1 X105.858 Y103.094 E.02254
G1 X105.858 Y91.663 E.43445
G1 X105.287 Y91.831 E.02262
G1 X105.287 Y102.931 E.42187
G1 X104.715 Y102.756 E.02273
G1 X104.715 Y92.01 E.40842
G1 X104.144 Y92.202 E.0229
G1 X104.144 Y102.564 E.39382
G1 X103.573 Y102.357 E.02308
G1 X103.573 Y92.409 E.37809
G1 X103.001 Y92.639 E.02343
G1 X103.001 Y102.127 E.3606
G1 X102.43 Y101.874 E.02374
G1 X102.43 Y92.893 E.34133
G1 X101.859 Y93.176 E.02422
M73 P5 R37
G1 X101.859 Y101.59 E.31979
G1 X101.287 Y101.276 E.0248
M73 Q5 S37
G1 X101.287 Y93.493 E.2958
G1 X100.716 Y93.866 E.02592
G1 X100.716 Y100.906 E.26756
G1 X100.145 Y100.436 E.02811
G1 X100.145 Y94.332 E.23199
G1 X99.573 Y94.938 E.03167
G1 X99.573 Y99.838 E.18623
G1 X99.002 Y99.067 E.03646
G1 X99.002 Y95.351 E.14123
M204 P1000
G1 E-.64 F2100
;WIPE_START
G1 F9600
G1 X99.002 Y96.121 E-.16
;WIPE_END
G1 X119.211 Y103.233 Z.574 F12000
G1 Z.2 F720
G1 E.8 F1500
M204 P600
;TYPE:Support material interface
;WIDTH:0.37
G1 F1200
G3 X118.828 Y102.747 I.551 J-.828 E.01711
G1 X119.179 Y102.456 E.0124
G1 X120.023 Y103.3 E.03246
G1 X120.827 Y103.359 E.02193
G1 X119.588 Y102.119 E.04767
G1 X119.996 Y101.782 E.01439
G1 X121.628 Y103.414 E.06277
G1 X122.425 Y103.466 E.02172
G1 X120.404 Y101.444 E.07775
G1 X120.812 Y101.107 E.01439
G1 X123.214 Y103.509 E.09239
G1 X123.998 Y103.548 E.02135
G1 X121.22 Y100.77 E.10685
G1 X121.629 Y100.433 E.01441
G1 X124.773 Y103.577 E.12092
G1 X125.545 Y103.604 E.02101
G1 X122.037 Y100.096 E.13492
