; generated by PrusaSlicer 2.8.1+MacOS-x64 on 2025-03-18 at 20:01:02 UTC


;
;

;
;

;
;

;
;

;
;
; 

; external perimeters extrusion width = 0.45mm
; perimeters extrusion width = 0.45mm
; infill extrusion width = 0.45mm
; solid infill extrusion width = 0.45mm
; top infill extrusion width = 0.42mm
; support material extrusion width = 0.37mm
; first layer extrusion width = 0.50mm

M73 P0 R45
M73 Q0 S45
M201 X2500 Y2500 Z200 E2500 ; sets maximum accelerations, mm/sec^2
M203 X200 Y200 Z40 E100 ; sets maximum feedrates, mm / sec
M204 P2000 R1200 T2000 ; sets acceleration (P, T) and retract acceleration (R), mm/sec^2
M205 X8.00 Y8.00 Z2.00 E10.00 ; sets the jerk limits, mm/sec
M205 S0 T0 ; sets the minimum extruding and travel feed rate, mm/sec

M486 S0
M486 Awide_top.stl
M486 S-1

;TYPE:Custom
M17 ; enable steppers
M862.3 P "MK4" ; printer model check
M862.1 P0.4 A0 F0 ; nozzle check
M115 U6.1.3+7898
M555 X95 Y80.6 W60 H44.8

G90 ; use absolute coordinates
M83 ; extruder relative mode

M140 S60 ; set bed temp
M104 T0 S170 ; set extruder temp for bed leveling
M109 T0 R170 ; wait for temp

M84 E ; turn off E motor

G28 ; home all without mesh bed level

G1 X42 Y-4 Z5 F4800

M302 S160 ; lower cold extrusion limit to 160C


G1 E-2 F2400 ; retraction


M84 E ; turn off E motor

G29 P9 X10 Y-4 W32 H4

M106 S100

G0 Z40 F10000

M190 S60 ; wait for bed temp

M107

;
; MBL
;
M84 E ; turn off E motor
G29 P1 ; invalidate mbl & probe print area
G29 P1 X0 Y0 W50 H20 C ; probe near purge place
G29 P3.2 ; interpolate mbl probes
G29 P3.13 ; extrapolate mbl outside probe area
G29 A ; activate mbl

; prepare for purge
M104 S215
G0 X0 Y-4 Z15 F4800 ; move away and ready for the purge
M109 S215

G92 E0
M569 S0 E ; set spreadcycle mode for extruder

;
; Extrude purge line
;
G92 E0 ; reset extruder position
G1 E2 F2400 ; deretraction after the initial one before nozzle cleaning
G0 E7 X15 Z0.2 F500 ; purge
G0 X25 E4 F500 ; purge
G0 X35 E4 F650 ; purge
G0 X45 E4 F800 ; purge
G0 X48 Z0.05 F8000 ; wipe, move close to the bed
G0 X51 Z0.2 F8000 ; wipe, move quickly away from the bed

G92 E0
M221 S100 ; set flow to 100%
G21 ; set units to millimeters
G90 ; use absolute coordinates
M83 ; use relative distances for extrusion
M900 K0.05 ; Filament gcode



M142 S36 ; set heatbreak target temp
M107
;LAYER_CHANGE
;Z:0.2
;HEIGHT:0.2
G1 E-.8 F2100
G1 Z.8 F720
M486 S0
G1 X115.364 Y86.623 F12000
G1 Z.2 F720
G1 E.8 F1500
M204 P600
;TYPE:Perimeter
;WIDTH:0.499999
G1 F1200
G3 X126.761 Y85.543 I9.579 J40.399 E.43649
G3 X138.284 Y87.667 I-1.61 J41.052 E.44685
G3 X143.877 Y90.185 I-11.206 J32.361 E.23343
G3 X147.747 Y92.87 I-13.806 J24.032 E.17923
G3 X152.044 Y97.837 I-12.798 J15.415 E.25075
G3 X153.932 Y102.98 I-12.66 J7.564 E.20944
G3 X154.087 Y105.281 I-13.474 J2.063 E.08776
G3 X153.276 Y109.57 I-13.416 J-.314 E.16664
G3 X150.27 Y114.636 I-15.89 J-6.007 E.22502
G3 X144.786 Y119.271 I-17.958 J-15.68 E.27394
G3 X138.2 Y122.361 I-17.257 J-28.219 E.27705
G3 X124.418 Y124.489 I-13.13 J-39.358 E.53254
G3 X111.126 Y122.123 I.443 J-41.017 E.51546
G3 X106.12 Y119.813 I11.573 J-31.657 E.20977
G3 X100.516 Y115.505 I12.354 J-21.87 E.26954
G3 X97.145 Y110.606 I12.785 J-12.408 E.22708
G3 X95.92 Y105.576 I12.561 J-5.722 E.19793
G3 X96.724 Y100.43 I13.404 J-.542 E.19922
G3 X99.347 Y95.829 I15.566 J5.826 E.20215
G3 X104.704 Y91.054 I17.806 J14.583 E.27386
G3 X111.797 Y87.639 I17.513 J27.308 E.29994
G3 X115.305 Y86.637 I13.146 J39.383 E.1387
M204 P1000
G1 X115.305 Y86.637 F12000
G1 X115.255 Y86.179
M204 P600
;TYPE:External perimeter
G1 F1200
G3 X126.78 Y85.086 I9.689 J40.848 E.44139
G3 X138.435 Y87.236 I-1.63 J41.513 E.45198
G3 X144.106 Y89.79 I-11.363 J32.805 E.2367
G3 X148.044 Y92.523 I-14.039 J24.433 E.1824
G3 X152.438 Y97.603 I-13.099 J15.767 E.25643
G3 X154.383 Y102.91 I-13.061 J7.799 E.21607
G3 X154.544 Y105.291 I-13.944 J2.134 E.09081
G3 X153.705 Y109.73 I-13.876 J-.324 E.17246
G3 X150.618 Y114.932 I-16.323 J-6.169 E.23107
G3 X145.026 Y119.661 I-18.31 J-15.981 E.2794
G3 X138.348 Y122.794 I-17.501 J-28.617 E.28092
G3 X124.412 Y124.946 I-13.279 J-39.796 E.53849
G3 X112.166 Y122.966 I.512 J-42.028 E.4732
G3 X105.893 Y120.21 I10.662 J-32.785 E.26084
G3 X100.183 Y115.819 I12.583 J-22.269 E.27468
G3 X96.726 Y110.79 I13.118 J-12.722 E.23303
G3 X95.463 Y105.596 I12.984 J-5.907 E.20436
G3 X96.295 Y100.27 I13.867 J-.562 E.20619
G3 X98.992 Y95.54 I16.002 J5.991 E.20783
G3 X104.456 Y90.67 I18.164 J14.876 E.27932
G3 X111.651 Y87.206 I17.764 J27.697 E.30425
G3 X115.197 Y86.193 I13.293 J39.821 E.14021
M204 P1000
G1 E-.64 F2100
;WIPE_START
G1 F9600
G1 X115.255 Y86.179 E-.0124
G3 X115.947 Y86.021 I9.687 J40.848 E-.1476
;WIPE_END
G1 X146.2 Y92.226 Z.739 F12000
G1 X146.743 Y92.338 Z.748
G1 Z.2 F720
G1 E.8 F1500
M204 P600
;TYPE:Solid infill
;WIDTH:0.501989
G1 F1200
G1 X149.215 Y94.809 E.13342
G3 X151.487 Y97.731 I-13.148 J12.571 E.14153
G1 X145.334 Y91.578 E.33216
G1 X143.621 Y90.514 E.07698
G1 X152.303 Y99.196 E.46868
G3 X152.792 Y100.335 I-11.696 J5.702 E.04733
G1 X142.244 Y89.786 E.56944
G1 X140.987 Y89.178 E.0533
G1 X153.13 Y101.322 E.65554
G1 X153.369 Y102.21 E.0351
M73 P1 R45
M73 Q1 S45
G1 X139.855 Y88.696 E.72953
G1 X138.817 Y88.306 E.04233
G1 X153.511 Y103.001 E.79325
G1 X153.617 Y103.757 E.02914
G1 X137.804 Y87.944 E.85363
G1 X136.85 Y87.638 E.03824
G1 X153.669 Y104.457 E.90794
G1 X153.669 Y105.107 E.02481
G1 X135.947 Y87.385 E.95669
G1 X135.052 Y87.139 E.03543
G1 X153.652 Y105.739 E1.00408
G1 X153.6 Y106.336 E.02287
G1 X134.201 Y86.937 E1.04722
G1 X133.382 Y86.767 E.03193
G1 X153.531 Y106.917 E1.08773
G1 X153.434 Y107.469 E.02139
G1 X132.574 Y86.609 E1.12609
G1 X131.788 Y86.471 E.03046
G1 X153.317 Y108.001 E1.16223
G1 X153.182 Y108.515 E.02029
G1 X131.024 Y86.357 E1.19616
G1 X130.264 Y86.247 E.02931
G1 X153.031 Y109.013 E1.229
G1 X152.863 Y109.494 E.01945
G1 X129.539 Y86.171 E1.25907
G1 X128.814 Y86.095 E.02783
G1 X152.675 Y109.956 E1.28809
G1 X152.487 Y110.417 E.019
M73 P1 R44
G1 X128.109 Y86.039 E1.316
G1 X127.417 Y85.996 E.02647
G1 X152.273 Y110.852 E1.3418
G1 X152.057 Y111.285 E.01847
M73 Q1 S44
G1 X126.726 Y85.954 E1.36744
G1 X126.061 Y85.939 E.02539
G1 X151.826 Y111.704 E1.39087
G1 X151.584 Y112.111 E.01807
M73 P2 R44
M73 Q2 S44
G1 X125.399 Y85.926 E1.41354
G1 X124.748 Y85.924 E.02485
G1 X151.34 Y112.516 E1.43552
G1 X151.073 Y112.898 E.01779
G1 X124.106 Y85.931 E1.45576
G1 X123.474 Y85.949 E.02413
G1 X150.807 Y113.281 E1.47549
G1 X150.529 Y113.652 E.0177
G1 X122.852 Y85.976 E1.49406
G1 X122.238 Y86.011 E.02348
G1 X150.24 Y114.013 E1.51163
G1 X149.952 Y114.374 E.01763
G1 X121.633 Y86.055 E1.52874
G1 X121.034 Y86.106 E.02295
G1 X149.643 Y114.715 E1.5444
G1 X149.335 Y115.055 E.01751
G1 X120.446 Y86.166 E1.55951
G1 X119.862 Y86.232 E.02243
G1 X149.018 Y115.387 E1.5739
G1 X148.691 Y115.71 E.01754
G1 X119.288 Y86.307 E1.58726
G1 X118.72 Y86.388 E.0219
G1 X148.364 Y116.032 E1.60027
G1 X148.02 Y116.338 E.01757
G1 X118.159 Y86.476 E1.61201
G1 X117.606 Y86.572 E.02142
G1 X147.676 Y116.642 E1.62327
G1 X147.327 Y116.943 E.01759
M73 P3 R44
M73 Q3 S44
G1 X117.057 Y86.673 E1.63407
G1 X116.518 Y86.783 E.021
G1 X146.969 Y117.234 E1.64384
G1 X146.599 Y117.513 E.01769
G1 X115.98 Y86.894 E1.65291
G1 X115.455 Y87.019 E.0206
G1 X146.23 Y117.793 E1.6613
G1 X145.853 Y118.065 E.01775
G1 X114.93 Y87.143 E1.66929
G1 X114.417 Y87.279 E.02026
G1 X145.467 Y118.329 E1.67617
G1 X145.082 Y118.594 E.01784
G1 X113.906 Y87.417 E1.683
G1 X113.405 Y87.565 E.01994
G1 X144.687 Y118.847 E1.6887
G1 X144.283 Y119.092 E.01804
G1 X112.911 Y87.72 E1.69355
G1 X112.417 Y87.876 E.01977
G1 X143.875 Y119.334 E1.6982
G1 X143.465 Y119.573 E.01812
G1 X111.923 Y88.031 E1.70273
G1 X111.446 Y88.204 E.01937
M73 P3 R43
G1 X143.044 Y119.801 E1.70573
G1 X142.622 Y120.028 E.01829
M73 P4 R43
M73 Q4 S43
G1 X110.97 Y88.376 E1.70867
G1 X110.502 Y88.557 E.01915
G1 X142.188 Y120.244 E1.71053
G1 X141.749 Y120.454 E.01858
G1 X110.038 Y88.743 E1.71185
G1 X109.579 Y88.933 E.01896
G1 X141.31 Y120.664 E1.71293
G1 X140.87 Y120.874 E.01861
G1 X109.133 Y89.137 E1.71326
G1 X108.687 Y89.34 E.01871
G1 X140.414 Y121.067 E1.71272
G1 X139.958 Y121.26 E.0189
G1 X108.241 Y89.543 E1.71218
G1 X107.805 Y89.756 E.01852
G1 X139.492 Y121.443 E1.71056
G1 X139.018 Y121.619 E.0193
G1 X107.376 Y89.976 E1.70816
G1 X106.948 Y90.198 E.0184
G1 X138.545 Y121.795 E1.7057
G1 X138.072 Y121.97 E.01925
G1 X106.534 Y90.432 E1.70252
G1 X106.119 Y90.667 E.0182
G1 X137.578 Y122.126 E1.69825
G1 X137.084 Y122.281 E.01976
M73 P5 R43
M73 Q5 S43
G1 X105.713 Y90.91 E1.6935
G1 X105.313 Y91.159 E.01799
G1 X136.59 Y122.437 E1.68845
G1 X136.087 Y122.583 E.01999
G1 X104.913 Y91.409 E1.68287
G1 X104.524 Y91.669 E.01786
G1 X135.572 Y122.717 E1.67606
G1 X135.058 Y122.852 E.02029
G1 X104.145 Y91.939 E1.66878
G1 X103.767 Y92.211 E.01778
G1 X134.543 Y122.987 E1.66138
G1 X134.011 Y123.104 E.02079
G1 X103.393 Y92.485 E1.65288
G1 X103.027 Y92.769 E.01768
G1 X133.479 Y123.221 E1.64389
G1 X132.933 Y123.324 E.02121
G1 X102.674 Y93.064 E1.6335
G1 X102.32 Y93.361 E.01764
G1 X132.383 Y123.423 E1.62286
G1 X131.833 Y123.523 E.02134
G1 X101.972 Y93.661 E1.61201
G1 X101.671 Y93.934 E.01551
G1 X101.633 Y93.972 E.00205
G1 X131.272 Y123.611 E1.6
G1 X130.7 Y123.688 E.02203
M73 P6 R43
G1 X101.306 Y94.294 E1.58678
G1 X100.979 Y94.616 E.01752
M73 Q6 S43
G1 X130.128 Y123.765 E1.57355
G1 X129.548 Y123.834 E.0223
M73 P6 R42
G1 X100.659 Y94.945 E1.55951
G1 X100.35 Y95.285 E.01754
M73 Q6 S42
G1 X128.953 Y123.888 E1.54408
G1 X128.358 Y123.943 E.02281
G1 X100.051 Y95.636 E1.5281
G1 X99.753 Y95.987 E.01758
G1 X127.754 Y123.988 E1.51158
G1 X127.135 Y124.018 E.02366
G1 X99.465 Y96.348 E1.49371
G1 X99.19 Y96.723 E.01775
G1 X126.517 Y124.049 E1.47517
G1 X125.885 Y124.067 E.02413
G1 X98.924 Y97.105 E1.45546
G1 X98.657 Y97.488 E.01782
G1 X125.241 Y124.071 E1.43506
G1 X124.596 Y124.076 E.02462
G1 X98.413 Y97.893 E1.41344
G1 X98.171 Y98.3 E.01807
G1 X123.931 Y124.061 E1.39063
G1 X123.259 Y124.038 E.02567
G1 X97.941 Y98.719 E1.36677
G1 X97.724 Y99.152 E.01849
G1 X122.584 Y124.011 E1.34199
G1 X121.881 Y123.958 E.02691
M73 P7 R42
M73 Q7 S42
G1 X97.511 Y99.588 E1.31557
G1 X97.323 Y100.049 E.019
G1 X121.178 Y123.905 E1.28779
G1 X120.456 Y123.831 E.0277
G1 X97.135 Y100.511 E1.25891
G1 X96.967 Y100.992 E.01945
G1 X119.719 Y123.743 E1.22819
G1 X118.977 Y123.651 E.02854
G1 X96.816 Y101.49 E1.19632
G1 X96.681 Y102.004 E.02029
G1 X118.2 Y123.523 E1.16166
G1 X117.423 Y123.395 E.03006
G1 X96.565 Y102.537 E1.12598
G1 X96.473 Y103.095 E.02159
G1 X116.609 Y123.23 E1.08697
G1 X115.785 Y123.055 E.03216
G1 X96.398 Y103.669 E1.04654
G2 X96.351 Y104.27 I4.254 J.639 E.02303
G1 X114.935 Y122.854 E1.00322
G1 X114.054 Y122.623 E.03477
G1 X96.324 Y104.893 E.95712
G1 X96.331 Y105.549 E.02504
G1 X113.128 Y122.347 E.90678
G1 X112.187 Y122.054 E.03762
G1 X96.383 Y106.251 E.85312
G1 X96.49 Y107.007 E.02915
G1 X111.189 Y121.706 E.7935
G1 X110.115 Y121.281 E.04409
G1 X96.633 Y107.799 E.7278
G2 X96.878 Y108.693 I8.945 J-1.973 E.0354
G1 X108.991 Y120.806 E.6539
G3 X107.753 Y120.217 I8.857 J-20.216 E.05234
G1 X97.211 Y109.676 E.56906
G2 X97.696 Y110.81 I13.406 J-5.06 E.04709
G1 X106.364 Y119.477 E.4679
G1 X104.647 Y118.41 E.07717
G1 X98.501 Y112.264 E.33178
G2 X101.122 Y115.534 I15.801 J-9.978 E.16031
G1 X103.258 Y117.67 E.11531
M204 P1000
M106 S127.5
;LAYER_CHANGE
;Z:0.4
;HEIGHT:0.2
;BEFORE_LAYER_CHANGE
G92 E0.0
;0.4


G1 E-.64 F2100
;WIPE_START
G1 F9600
G1 X102.714 Y117.126 E-.16
;WIPE_END
G1 X102.714 Y117.126 Z.2 F12000
G1 X114.397 Y88.538 Z.739
G1 X115.277 Y86.384 Z.773
G1 X115.288 Y86.357 Z.773
;AFTER_LAYER_CHANGE
;0.4
M104 S210 ; set temperature
G1 X115.288 Y86.357
G1 Z.4 F720
G1 E.8 F1500
;TYPE:Perimeter
;WIDTH:0.449999
G1 F4200
G3 X125.506 Y85.236 I9.61 J40.44 E.34883
G3 X138.374 Y87.407 I-.387 J41.501 E.44356
G3 X144.017 Y89.948 I-11.303 J32.637 E.20976
G3 X150.091 Y94.743 I-12.284 J21.805 E.263
G3 X153.336 Y99.818 I-13.139 J11.977 E.20488
G3 X154.362 Y105.287 I-12.904 J5.251 E.18962
G3 X153.535 Y109.664 I-13.691 J-.32 E.15145
G3 X150.479 Y114.814 I-16.154 J-6.103 E.20373
G3 X144.931 Y119.505 I-18.169 J-15.86 E.24686
G3 X138.289 Y122.622 I-17.404 J-28.458 E.24885
G3 X124.414 Y124.764 I-13.22 J-39.621 E.47748
G3 X112.221 Y122.792 I.51 J-41.844 E.41961
G3 X105.983 Y120.052 I10.605 J-32.607 E.231
G3 X100.317 Y115.695 I12.492 J-22.11 E.24274
G3 X96.894 Y110.719 I12.986 J-12.599 E.2054
G3 X95.685 Y106.183 I12.957 J-5.882 E.15963
G3 X96.465 Y100.336 I13.569 J-1.165 E.20126
M73 P8 R42
G3 X99.133 Y95.656 I15.829 J5.923 E.18313
G3 X104.554 Y90.823 I18.021 J14.757 E.24684
M73 Q8 S42
G3 X111.708 Y87.379 I17.665 J27.543 E.26942
G3 X115.23 Y86.371 I13.19 J39.418 E.12404
G1 X115.198 Y85.96 F12000
M204 P800
;TYPE:External perimeter
G1 F2399.995
G3 X125.513 Y84.828 I9.7 J40.841 E.35215
G3 X138.508 Y87.023 I-.395 J41.911 E.44795
G3 X144.219 Y89.595 I-11.441 J33.029 E.21229
G3 X150.395 Y94.473 I-12.486 J22.158 E.26747
G3 X153.713 Y99.666 I-13.445 J12.249 E.2096
G3 X154.769 Y105.296 I-13.293 J5.405 E.1952
G3 X153.916 Y109.807 I-14.101 J-.329 E.15609
G3 X150.789 Y115.078 I-16.538 J-6.248 E.2085
G3 X145.145 Y119.852 I-18.483 J-16.129 E.25118
G3 X138.421 Y123.007 I-17.622 J-28.813 E.25192
G3 X124.409 Y125.171 I-13.353 J-40.011 E.4822
G3 X112.096 Y123.18 I.516 J-42.256 E.42374
G3 X105.781 Y120.405 I10.734 J-33.004 E.23387
G3 X100.021 Y115.974 I12.696 J-22.465 E.2468
G3 X96.521 Y110.882 I13.282 J-12.879 E.21013
G3 X95.28 Y106.22 I13.335 J-6.046 E.16405
G3 X96.084 Y100.194 I13.979 J-1.202 E.20742
G3 X98.817 Y95.4 I16.216 J6.069 E.18759
G3 X104.333 Y90.481 I18.34 J15.017 E.25119
G3 X111.578 Y86.993 I17.888 J27.889 E.27285
G3 X115.139 Y85.974 I13.32 J39.808 E.12541
M204 P1000
G1 E-.64 F2100
;WIPE_START
G1 F9600
G1 X115.198 Y85.96 E-.0126
G3 X115.889 Y85.802 I9.7 J40.841 E-.1474
;WIPE_END
G1 X101.806 Y93.217 Z.678 F12000
G1 Z.4 F720
G1 E.8 F1500
M204 P1500
;TYPE:Solid infill
;WIDTH:0.38292
G1 F12000
G1 X100.52 Y94.476 E.05088
G1 X101.659 Y93.357 E.04514
M204 P1000
G1 E-.64 F2100
;WIPE_START
G1 F9600
G1 X101.11 Y93.897 E-.16
;WIPE_END
G1 X104.202 Y91.374 Z.47 F12000
G1 Z.4 F720
G1 E.8 F1500
M204 P1500
;WIDTH:0.392856
G1 F12000
G1 X103.48 Y91.988 E.02758
;WIDTH:0.421428
G1 F11888.8
G1 X103.336 Y92.112 E.00598
;WIDTH:0.449999
G1 F11054.364
G1 X103.192 Y92.236 E.00643
G1 X99.02 Y96.408 E.19971
G1 X98.92 Y96.546 E.00577
;WIDTH:0.416768
G1 F12000
G1 X98.82 Y96.685 E.00532
;WIDTH:0.383536
G1 X98.749 Y96.666 E.00208
G2 X98.809 Y96.726 I.04 J.02 E.00315
M204 P1000
G1 E-.64 F2100
;WIPE_START
G1 F9600
G3 X98.749 Y96.666 I-.02 J-.04 E-.02309
G1 X98.82 Y96.685 E-.01527
G1 X98.92 Y96.546 E-.03558
G1 X99.02 Y96.408 E-.03542
G1 X99.192 Y96.236 E-.05064
;WIPE_END
G1 X97.921 Y98.082 Z.439 F12000
G1 Z.4 F720
G1 E.8 F1500
M204 P1500
;WIDTH:0.449999
G1 F11054.364
G1 X105.07 Y90.934 E.34219
G1 X105.229 Y90.834 E.00636
;WIDTH:0.41646
G1 F12000
G1 X105.388 Y90.735 E.00582
;WIDTH:0.38292
G3 X105.327 Y90.675 I-.02 J-.04 E.00321
G1 X105.399 Y90.694 E.00211
M204 P1000
G1 X105.399 Y90.694
G1 X106.489 Y90.09
M204 P1500
;WIDTH:0.449999
G1 F11054.364
G1 X97.307 Y99.272 E.43954
G1 X97.23 Y99.411 E.00538
;WIDTH:0.41646
G1 F12000
G1 X97.153 Y99.549 E.00491
;WIDTH:0.38292
G1 X97.082 Y99.53 E.00208
G2 X97.142 Y99.59 I.04 J.02 E.00315
M204 P1000
G1 X97.142 Y99.59
G1 X96.736 Y100.583
M204 P1500
G3 X96.676 Y100.523 I-.02 J-.04 E.00315
G1 X96.747 Y100.542 E.00208
;WIDTH:0.41646
G1 X96.818 Y100.403 E.00485
;WIDTH:0.449999
G1 F11054.364
G1 X96.89 Y100.265 E.00527
G1 X107.711 Y89.444 E.51799
G1 X107.869 Y89.357 E.00611
;WIDTH:0.41646
G1 F12000
G1 X108.026 Y89.269 E.00559
;WIDTH:0.38292
G3 X107.966 Y89.209 I-.02 J-.04 E.00315
G1 X108.037 Y89.228 E.00208
;WIDTH:0.449999
G1 F11054.364
G1 X108.788 Y88.942 E.0272
G1 X96.583 Y101.147 E.58425
G1 X96.516 Y101.306 E.00584
;WIDTH:0.41646
G1 F12000
G1 X96.449 Y101.465 E.00536
;WIDTH:0.38292
G3 X96.389 Y101.405 I-.02 J-.04 E.00315
G1 X96.46 Y101.424 E.00208
;WIDTH:0.449999
G1 F11054.364
G1 X96.368 Y101.938 E.01767
G1 X109.82 Y88.486 E.64394
M204 P1000
G1 X109.82 Y88.486 F12000
G1 X111.102 Y87.911
M204 P1500
;WIDTH:0.38292
G1 X111.031 Y87.892 E.00208
